X: 102
T:Star Of The Ball Radowa. WI.102
M:3/4
Q:120
C:"Montgomery"
S:Wm Irwin, Folio MS, c1850. AGG's Transcription
R:Waltz
O:England
A:Lake District
Z:vmp.Chris Partington.2005
K:A
(a>g) f3 g/|f>e c3 d/|c>B G3 B/|f>e "etc"c2z2||!
B>B c2^d2|e>f g3a|g>fg3g|f>e"etc"B2z2||
